src/icons/remove-trash.svg

<?xml version="1.0" encoding="UTF-8"?>
<svg xmlns="http://www.w3.org/2000/svg" xmlns:xlink="http://www.w3.org/1999/xlink" width="32" height="32" viewBox="0 0 32 32" version="1.1">
<g id="surface1">
<path style=" stroke:none;fill-rule:nonzero;fill:rgb(0%,0%,0%);fill-opacity:1;" d="M 13.441406 1.28125 C 12.382812 1.285156 11.527344 2.140625 11.519531 3.199219 L 11.519531 4.480469 L 5.121094 4.480469 C 4.777344 4.492188 4.503906 4.777344 4.503906 5.121094 C 4.503906 5.464844 4.777344 5.746094 5.121094 5.761719 L 5.761719 5.761719 L 5.761719 28.800781 C 5.761719 29.859375 6.621094 30.71875 7.679688 30.71875 L 21.785156 30.71875 C 22.882812 31.550781 24.222656 32 25.601562 32 C 29.121094 32 32 29.121094 32 25.601562 C 32 22.296875 29.460938 19.554688 26.238281 19.234375 L 26.238281 5.761719 L 26.878906 5.761719 C 27.230469 5.761719 27.519531 5.476562 27.519531 5.121094 C 27.519531 4.765625 27.230469 4.480469 26.878906 4.480469 L 20.480469 4.480469 L 20.480469 3.199219 C 20.472656 2.140625 19.617188 1.285156 18.558594 1.28125 Z M 13.441406 2.558594 L 18.558594 2.558594 C 18.914062 2.558594 19.199219 2.84375 19.199219 3.199219 L 19.199219 4.480469 L 12.800781 4.480469 L 12.800781 3.199219 C 12.800781 2.84375 13.085938 2.558594 13.441406 2.558594 M 12.160156 8.960938 C 12.515625 8.960938 12.800781 9.246094 12.800781 9.601562 L 12.800781 25.601562 C 12.800781 25.769531 12.734375 25.933594 12.613281 26.050781 C 12.492188 26.171875 12.332031 26.238281 12.160156 26.238281 C 11.992188 26.238281 11.828125 26.171875 11.707031 26.054688 C 11.589844 25.933594 11.519531 25.769531 11.519531 25.601562 L 11.519531 9.601562 C 11.519531 9.246094 11.804688 8.960938 12.160156 8.960938 M 16 8.960938 C 16.355469 8.960938 16.640625 9.246094 16.640625 9.601562 L 16.640625 25.601562 C 16.640625 25.769531 16.570312 25.933594 16.449219 26.050781 C 16.332031 26.171875 16.167969 26.238281 16 26.238281 C 15.648438 26.238281 15.359375 25.953125 15.359375 25.601562 L 15.359375 9.601562 C 15.359375 9.246094 15.644531 8.960938 16 8.960938 M 19.839844 8.960938 C 20.195312 8.960938 20.480469 9.246094 20.480469 9.601562 L 20.480469 21.769531 C 19.789062 22.683594 19.359375 23.769531 19.238281 24.910156 C 19.226562 24.929688 19.210938 24.941406 19.199219 24.960938 L 19.199219 9.601562 C 19.199219 9.246094 19.484375 8.960938 19.839844 8.960938 M 25.601562 20.480469 C 28.410156 20.480469 30.71875 22.785156 30.71875 25.601562 C 30.71875 28.414062 28.410156 30.71875 25.601562 30.71875 C 22.78125 30.71875 20.476562 28.414062 20.476562 25.601562 C 20.476562 22.785156 22.78125 20.480469 25.601562 20.480469 M 23.355469 22.71875 C 23.1875 22.722656 23.027344 22.792969 22.910156 22.914062 C 22.789062 23.03125 22.71875 23.191406 22.71875 23.363281 C 22.71875 23.53125 22.789062 23.691406 22.910156 23.808594 L 24.703125 25.601562 L 22.910156 27.390625 C 22.789062 27.507812 22.71875 27.671875 22.71875 27.839844 C 22.71875 28.011719 22.789062 28.171875 22.910156 28.289062 C 23.027344 28.410156 23.191406 28.480469 23.359375 28.480469 C 23.527344 28.480469 23.691406 28.410156 23.808594 28.289062 L 25.601562 26.496094 L 27.390625 28.289062 C 27.644531 28.542969 28.027344 28.542969 28.285156 28.289062 C 28.402344 28.167969 28.46875 28.007812 28.476562 27.839844 C 28.46875 27.671875 28.402344 27.511719 28.289062 27.390625 L 26.492188 25.601562 L 28.285156 23.808594 C 28.402344 23.6875 28.46875 23.527344 28.476562 23.359375 C 28.46875 23.191406 28.402344 23.035156 28.289062 22.914062 C 28.171875 22.789062 28.007812 22.71875 27.839844 22.71875 C 27.667969 22.71875 27.503906 22.789062 27.386719 22.914062 L 25.601562 24.703125 L 23.808594 22.914062 C 23.6875 22.792969 23.527344 22.722656 23.355469 22.71875 M 23.355469 22.71875 "/>
</g>
</svg>

<svg role="img" viewBox="0 0 32 32" xmlns="http://www.w3.org/2000/svg"><path d="M13.441 1.281A1.93 1.93 0 0 0 11.52 3.2v1.28h-6.4a.641.641 0 0 0 0 1.281h.64v23.04a1.92 1.92 0 0 0 1.919 1.918h14.105A6.338 6.338 0 0 0 25.602 32C29.122 32 32 29.121 32 25.602c0-3.305-2.54-6.047-5.762-6.368V5.762h.64a.641.641 0 0 0 0-1.282H20.48V3.2a1.93 1.93 0 0 0-1.92-1.92Zm0 1.278h5.118c.355 0 .64.285.64.64V4.48h-6.398V3.2c0-.356.285-.641.64-.641m-1.28 6.402c.355 0 .64.285.64.64v16a.638.638 0 0 1-.64.637.638.638 0 0 1-.641-.636v-16c0-.356.285-.641.64-.641m3.839 0c.355 0 .64.285.64.64v16a.638.638 0 0 1-.64.637.638.638 0 0 1-.64-.636v-16c0-.356.285-.641.64-.641m3.84 0c.355 0 .64.285.64.64V21.77a6.341 6.341 0 0 0-1.242 3.14c-.011.02-.027.031-.039.05V9.603c0-.356.285-.641.64-.641m5.762 11.52c2.812 0 5.117 2.304 5.117 5.12 0 2.813-2.305 5.118-5.117 5.118-2.817 0-5.122-2.305-5.122-5.117 0-2.817 2.305-5.122 5.122-5.122m-2.243 2.238a.62.62 0 0 0-.445.195.614.614 0 0 0 0 .895l1.79 1.793-1.79 1.789a.618.618 0 0 0 0 .898.62.62 0 0 0 .895 0l1.793-1.793 1.789 1.793c.257.254.64.254.898 0a.709.709 0 0 0 .191-.45.709.709 0 0 0-.19-.448l-1.794-1.79 1.793-1.792a.709.709 0 0 0 .191-.45.692.692 0 0 0-.19-.445.618.618 0 0 0-.9 0l-1.788 1.79-1.793-1.79a.636.636 0 0 0-.45-.195m0 0" style="stroke:none;fill-rule:nonzero;fill:rgb(0%,0%,0%);fill-opacity:1"/></svg>
